24x24/apps/gmic_qt.svg

<svg xmlns="http://www.w3.org/2000/svg" width="24" height="24" version="1">
 <rect style="opacity:0.2" width="20" height="20" x="2" y="2.5" rx="6" ry="6"/>
 <rect style="fill:#707090" width="20" height="20" x="2" y="2" rx="6" ry="6"/>
 <path style="opacity:0.1" d="M 10.939453,5.0004382 10.761719,6.668407 9.5,7.7758288 l 1.535156,0.6855469 0.666016,1.5390623 1.125,-1.2441404 L 14.5,8.6000476 13.662109,7.1449694 14.029297,5.5082507 12.384766,5.855907 Z m 5.689453,0.5 L 15.992188,6.2836413 15,6.4242663 15.539062,7.2797351 15.363281,8.277782 16.333984,8.0238757 17.21875,8.5004382 17.279297,7.4887194 18,6.7836413 17.068359,6.4125476 Z m -8.2011716,3.5 c -0.600616,-0.00285 -1.2772281,0.047654 -1.7050782,0.1367188 -3.2049211,0.667149 -1.2756355,3.079316 0.46875,3.261718 2.1138461,0.492143 7.1207268,-0.940944 9.1484378,-1.289063 0.268252,-0.04604 0.51927,-0.07766 0.667968,-0.08594 0.83832,-0.04663 1.618178,0.174655 1.777344,0.224609 0.03225,0.0082 0.329088,0.140811 0.167969,-0.1875 C 18.826367,10.802691 17.521784,9.9825866 16.662109,9.8109851 15.9906,9.5871771 15.290153,9.3059332 14.546875,9.3598132 c -0.919004,0.066617 -2.160031,1.1818028 -1.630859,1.1738268 0.521672,-0.0079 1.178304,-0.482283 1.759765,-0.474608 0.425847,0.0056 1.449746,0.115867 1.242188,0.421874 -0.20511,0.251581 -3.285792,0.538041 -5.642578,0.445312 C 8.8537431,10.870277 7.3036966,10.220521 7.8847656,9.7738757 8.5757836,9.2427182 9.807298,9.309986 9.6796875,9.184032 9.5531355,9.059123 9.0283504,9.0033012 8.4277344,9.0004382 Z m 7.4687496,2.6542958 c -2.01803,0.204294 -4.104205,1.070949 -7.0800778,1.201172 0.1187095,1.945135 -0.3045781,3.641865 -0.7988281,4.914062 -0.175298,0.776565 0.9876795,1.30036 2.5078129,1.601563 2.538542,0.50299 5.829683,-0.563698 5.974609,-1.414063 -0.03194,-0.532186 -1.212622,-3.429865 -0.603516,-6.302734 z"/>
 <path style="opacity:0.1;fill:#f4f4f7" d="M 8,2 C 4.676,2 2,4.676 2,8 v 0.5 c 0,-3.324 2.676,-6 6,-6 h 8 c 3.324,0 6,2.676 6,6 V 8 C 22,4.676 19.324,2 16,2 Z"/>
 <path style="fill:#302da1" d="m 10.525258,18.870474 c -1.520133,-0.301203 -2.6830475,-0.82486 -2.5077495,-1.601425 0.49425,-1.272197 0.9180565,-2.968429 0.799347,-4.913564 2.9758725,-0.130223 5.0606755,-0.996012 7.0787055,-1.200306 -0.609106,2.872869 0.572496,5.769724 0.604439,6.30191 -0.144926,0.850365 -3.4362,1.916375 -5.974742,1.413385 z"/>
 <path style="fill:#302da1" d="M 14.5,8.09879 12.826693,8.2551035 11.700437,9.5 11.034395,7.960102 9.5,7.2758235 10.761669,6.167804 10.939618,4.5 12.385417,5.355102 14.029791,5.008622 13.66167,6.6451245 Z"/>
 <path style="fill:#302da1" d="M 18,6.283218 17.278861,6.987426 17.218351,8 16.334048,7.5231775 15.364251,7.777812 15.538859,6.77891 15,5.923711 15.992218,5.7831775 16.628988,5 17.067597,5.9120485 Z"/>
 <path style="fill:#302da1" d="M 8.427351,8.500114 C 7.826735,8.497264 7.1507985,8.547834 6.7229485,8.6368985 3.5180274,9.3040475 5.446182,11.715797 7.1905675,11.898198 c 2.113846,0.492144 7.1210015,-0.941444 9.1487125,-1.289563 0.268252,-0.04604 0.52041,-0.07698 0.669108,-0.08526 0.83832,-0.04663 1.617327,0.173832 1.776493,0.223786 0.03225,0.0082 0.328569,0.141862 0.16745,-0.186449 C 18.825573,10.302419 17.520883,9.4821025 16.661208,9.310501 15.989699,9.086693 15.289613,8.804672 14.546335,8.858552 c -0.919004,0.066617 -2.158777,1.182225 -1.629605,1.174249 0.521672,-0.0079 1.177733,-0.4820645 1.759194,-0.4743895 0.425847,0.00563 1.448727,0.1164315 1.241169,0.4224395 -0.20511,0.251581 -3.284142,0.536972 -5.640928,0.444243 C 8.8545175,10.369153 7.3027895,9.7210565 7.8838585,9.27441 8.5748765,8.7432525 9.8074465,8.810191 9.679836,8.684237 9.553284,8.559328 9.027967,8.502977 8.427351,8.500114 Z"/>
</svg>

<svg xmlns="http://www.w3.org/2000/svg" width="24" height="24" version="1"><rect style="opacity:.2" width="20" height="20" x="2" y="2.5" rx="6" ry="6"/><rect style="fill:#707090" width="20" height="20" x="2" y="2" rx="6" ry="6"/><path style="opacity:.1" d="m10.94 5-.178 1.668L9.5 7.776l1.535.685.666 1.54 1.125-1.245L14.5 8.6l-.838-1.455.367-1.637-1.644.348zm5.689.5-.637.784-.992.14.54.856-.177.998.971-.254.885.476.06-1.011.721-.705-.932-.371zM8.428 9c-.6-.002-1.277.048-1.705.137-3.205.667-1.276 3.08.468 3.262 2.114.492 7.121-.941 9.149-1.29.268-.045.52-.077.668-.085a5.497 5.497 0 0 1 1.777.224c.032.009.33.141.168-.187-.127-.258-1.431-1.078-2.29-1.25-.672-.224-1.373-.505-2.116-.451-.92.066-2.16 1.182-1.631 1.174.522-.008 1.178-.483 1.76-.475.426.006 1.45.116 1.242.422-.205.251-3.286.538-5.643.445-1.421-.056-2.971-.705-2.39-1.152.69-.531 1.922-.464 1.795-.59-.127-.125-.652-.18-1.252-.184zm7.468 2.655c-2.018.204-4.104 1.07-7.08 1.2.12 1.946-.304 3.643-.798 4.915-.176.777.987 1.3 2.507 1.602 2.539.503 5.83-.564 5.975-1.415-.032-.532-1.213-3.43-.604-6.302z"/><path style="opacity:.1;fill:#f4f4f7" d="M8 2C4.676 2 2 4.676 2 8v.5c0-3.324 2.676-6 6-6h8c3.324 0 6 2.676 6 6V8c0-3.324-2.676-6-6-6z"/><path style="fill:#302da1" d="M10.525 18.87c-1.52-.3-2.683-.824-2.507-1.601.494-1.272.918-2.968.799-4.914 2.976-.13 5.06-.996 7.079-1.2-.61 2.873.572 5.77.604 6.302-.145.85-3.436 1.916-5.975 1.413zM14.5 8.099l-1.673.156L11.7 9.5l-.666-1.54L9.5 7.276l1.262-1.108.178-1.668 1.445.855 1.645-.346-.368 1.636zM18 6.283l-.721.704L17.219 8l-.885-.477-.97.255.175-1L15 5.925l.992-.14L16.63 5l.439.912z"/><path style="fill:#302da1" d="M8.427 8.5c-.6-.003-1.276.048-1.704.137-3.205.667-1.277 3.079.468 3.261 2.113.492 7.12-.941 9.148-1.29.269-.045.52-.076.67-.085a5.499 5.499 0 0 1 1.776.224c.032.008.328.142.167-.186-.126-.259-1.431-1.079-2.29-1.25-.672-.224-1.372-.506-2.116-.452-.919.066-2.158 1.182-1.63 1.174.522-.008 1.178-.482 1.76-.475.426.006 1.449.117 1.241.423-.205.251-3.284.537-5.64.444-1.422-.056-2.974-.704-2.393-1.15.69-.532 1.923-.465 1.796-.59-.127-.126-.652-.182-1.253-.185z"/></svg>
